X: 26659
T: Midnight Dance, The
R: hornpipe
M: 4/4
K: Gmajor
|:(3DEF|G>FG>A G>Bd>B|A>^GA>B A2 (3ABc|d>G (3Bcd e>f (3gfe|d>gf>e (3ded (3cBA|
G2 G>D G>Bd>G|A>^GA>B (3ABA B>c|d2 B>d e>G (3gfe|d>B (3[Ac][GB][FA] G2:|
M:DMaj
|:F>G|A>dc>d A2 (3gfe|d>ef>g a>Af>A|e>Ag>e c>AB>c|df^ef dcB^A|
A2 (3dcd A>gf>e|d>A (3efg a2 f2|e2 (3gfe c2 (3ABc|d>f^e>f d2:|

